X: 9254
T: Dan R's Favourite
R: jig
M: 6/8
K: Gmajor
dBG G2 B|AFD D2 e|dBG GB/c/d|eag fge|
dBG GBG|AFD D2 D|EE/F/G AFD|G3 G2:|
BGB dB/c/d|ece dge|dBG GAB|AFD Ddc|
BG/A/B d2 B|ece dg/f/e|dBG DEF|G3- G2:|

